icons/circle/48/help-browser.svg

<svg xmlns="http://www.w3.org/2000/svg" xmlns:xlink="http://www.w3.org/1999/xlink" viewBox="0 0 48 48">
 <defs>
  <linearGradient id="linearGradient3764" x1="1" x2="47" gradientUnits="userSpaceOnUse" gradientTransform="matrix(0,-1,1,0,-1.5e-6,47.999998)">
   <stop style="stop-color:#30a0d4;stop-opacity:1"/>
   <stop offset="1" style="stop-color:#41a8d8;stop-opacity:1"/>
  </linearGradient>
 </defs>
 <g>
  <path d="m 36.31 5 c 5.859 4.062 9.688 10.831 9.688 18.5 c 0 12.426 -10.07 22.5 -22.5 22.5 c -7.669 0 -14.438 -3.828 -18.5 -9.688 c 1.037 1.822 2.306 3.499 3.781 4.969 c 4.085 3.712 9.514 5.969 15.469 5.969 c 12.703 0 23 -10.298 23 -23 c 0 -5.954 -2.256 -11.384 -5.969 -15.469 c -1.469 -1.475 -3.147 -2.744 -4.969 -3.781 z m 4.969 3.781 c 3.854 4.113 6.219 9.637 6.219 15.719 c 0 12.703 -10.297 23 -23 23 c -6.081 0 -11.606 -2.364 -15.719 -6.219 c 4.16 4.144 9.883 6.719 16.219 6.719 c 12.703 0 23 -10.298 23 -23 c 0 -6.335 -2.575 -12.06 -6.719 -16.219 z" style="opacity:0.05"/>
  <path d="m 41.28 8.781 c 3.712 4.085 5.969 9.514 5.969 15.469 c 0 12.703 -10.297 23 -23 23 c -5.954 0 -11.384 -2.256 -15.469 -5.969 c 4.113 3.854 9.637 6.219 15.719 6.219 c 12.703 0 23 -10.298 23 -23 c 0 -6.081 -2.364 -11.606 -6.219 -15.719 z" style="opacity:0.1"/>
  <path d="m 31.25 2.375 c 8.615 3.154 14.75 11.417 14.75 21.13 c 0 12.426 -10.07 22.5 -22.5 22.5 c -9.708 0 -17.971 -6.135 -21.12 -14.75 a 23 23 0 0 0 44.875 -7 a 23 23 0 0 0 -16 -21.875 z" style="opacity:0.2"/>
 </g>
 <g>
  <path d="m 24 1 c 12.703 0 23 10.297 23 23 c 0 12.703 -10.297 23 -23 23 -12.703 0 -23 -10.297 -23 -23 0 -12.703 10.297 -23 23 -23 z" style="fill:url(#linearGradient3764);fill-opacity:1"/>
 </g>
 <g>
  <g>
   <g transform="translate(1,1)">
    <g style="opacity:0.1">
     <!-- color: #41a8d8 -->
     <g>
      <path d="m 24 9 c -8.285 0 -15 6.715 -15 15 c 0 8.285 6.715 15 15 15 c 8.285 0 15 -6.715 15 -15 c 0 -8.285 -6.715 -15 -15 -15 m 0 6 c 4.969 0 9 4.03 9 9 c 0 4.969 -4.03 9 -9 9 c -4.969 0 -9 -4.03 -9 -9 c 0 -4.969 4.03 -9 9 -9 m 0 0" style="fill:#000;fill-opacity:1;stroke:none;fill-rule:nonzero"/>
      <use xlink:href="#SVGCleanerId_0"/>
      <use xlink:href="#SVGCleanerId_1"/>
     </g>
    </g>
   </g>
  </g>
 </g>
 <g>
  <g>
   <!-- color: #41a8d8 -->
   <g>
    <path d="m 24 9 c -8.285 0 -15 6.715 -15 15 c 0 8.285 6.715 15 15 15 c 8.285 0 15 -6.715 15 -15 c 0 -8.285 -6.715 -15 -15 -15 m 0 6 c 4.969 0 9 4.03 9 9 c 0 4.969 -4.03 9 -9 9 c -4.969 0 -9 -4.03 -9 -9 c 0 -4.969 4.03 -9 9 -9 m 0 0" style="fill:#ea5c53;fill-opacity:1;stroke:none;fill-rule:nonzero"/>
    <path d="m 10.375 17.781 c -0.867 1.895 -1.375 4 -1.375 6.219 c 0 2.219 0.508 4.324 1.375 6.219 l 5.25 -3 c -0.383 -1 -0.625 -2.082 -0.625 -3.219 c 0 -1.137 0.242 -2.219 0.625 -3.219 m -5.25 -3" style="fill:#eeece0;fill-opacity:1;stroke:none;fill-rule:nonzero"/>
    <path d="m 37.625 17.781 l -5.25 3 c 0.383 1 0.625 2.082 0.625 3.219 c 0 1.137 -0.242 2.219 -0.625 3.219 l 5.25 3 c 0.867 -1.895 1.375 -4 1.375 -6.219 c 0 -2.219 -0.508 -4.324 -1.375 -6.219 m 0 0" style="fill:#eeece0;fill-opacity:1;stroke:none;fill-rule:nonzero"/>
    <path d="m 20.781 32.375 l -3 5.25 c 1.895 0.867 4 1.375 6.219 1.375 c 2.219 0 4.324 -0.508 6.219 -1.375 l -3 -5.25 c -1 0.383 -2.082 0.625 -3.219 0.625 c -1.137 0 -2.219 -0.242 -3.219 -0.625 m 0 0" style="fill:#eeece0;fill-opacity:1;stroke:none;fill-rule:nonzero"/>
    <path d="m 24 9 c -2.219 0 -4.324 0.508 -6.219 1.375 l 3 5.25 c 1 -0.383 2.082 -0.625 3.219 -0.625 c 1.137 0 2.219 0.242 3.219 0.625 l 3 -5.25 c -1.895 -0.867 -4 -1.375 -6.219 -1.375 m 0 0" style="fill:#eeece0;fill-opacity:1;stroke:none;fill-rule:nonzero"/>
    <path d="m 24 9 c -8.285 0 -15 6.715 -15 15 c 0 4.398 1.922 8.32 4.938 11.06 c -2.426 -2.664 -3.938 -6.176 -3.938 -10.06 c 0 -8.285 6.715 -15 15 -15 c 3.887 0 7.398 1.512 10.06 3.938 c -2.742 -3.02 -6.664 -4.938 -11.06 -4.938 m 0 0" id="SVGCleanerId_0" style="fill:#000;fill-opacity:0.149;stroke:none;fill-rule:nonzero"/>
    <path d="m 30.844 18.16 c 1.344 1.574 2.156 3.613 2.156 5.844 c 0 4.969 -4.03 9 -9 9 c -2.23 0 -4.27 -0.813 -5.844 -2.156 c 1.652 1.93 4.105 3.156 6.844 3.156 c 4.969 0 9 -4.03 9 -9 c 0 -2.738 -1.227 -5.191 -3.156 -6.844 m 0 0" id="SVGCleanerId_1" style="fill:#000;fill-opacity:0.149;stroke:none;fill-rule:nonzero"/>
   </g>
  </g>
 </g>
 <g>
  <path d="m 40.03 7.531 c 3.712 4.084 5.969 9.514 5.969 15.469 0 12.703 -10.297 23 -23 23 c -5.954 0 -11.384 -2.256 -15.469 -5.969 4.178 4.291 10.01 6.969 16.469 6.969 c 12.703 0 23 -10.298 23 -23 0 -6.462 -2.677 -12.291 -6.969 -16.469 z" style="opacity:0.1"/>
 </g>
</svg>

<svg xmlns="http://www.w3.org/2000/svg" xmlns:xlink="http://www.w3.org/1999/xlink" viewBox="0 0 48 48">
  <defs>
    <linearGradient id="a" x1="1" x2="47" gradientUnits="userSpaceOnUse" gradientTransform="rotate(-90 24 24)">
      <stop stop-color="#30a0d4"/>
      <stop offset="1" stop-color="#41a8d8"/>
    </linearGradient>
  </defs>
  <path d="M36.31 5c5.859 4.062 9.688 10.831 9.688 18.5 0 12.426-10.07 22.5-22.5 22.5-7.669 0-14.438-3.828-18.5-9.688a23.24 23.24 0 0 0 3.781 4.969 22.923 22.923 0 0 0 15.469 5.969c12.703 0 23-10.298 23-23a22.92 22.92 0 0 0-5.969-15.469A23.216 23.216 0 0 0 36.31 5zm4.969 3.781A22.911 22.911 0 0 1 47.498 24.5c0 12.703-10.297 23-23 23a22.909 22.909 0 0 1-15.719-6.219C12.939 45.425 18.662 48 24.998 48c12.703 0 23-10.298 23-23 0-6.335-2.575-12.06-6.719-16.219z" opacity=".05"/>
  <path d="M41.28 8.781a22.923 22.923 0 0 1 5.969 15.469c0 12.703-10.297 23-23 23A22.92 22.92 0 0 1 8.78 41.281 22.911 22.911 0 0 0 24.499 47.5c12.703 0 23-10.298 23-23A22.909 22.909 0 0 0 41.28 8.781z" opacity=".1"/>
  <path d="M31.25 2.375C39.865 5.529 46 13.792 46 23.505c0 12.426-10.07 22.5-22.5 22.5-9.708 0-17.971-6.135-21.12-14.75a23 23 0 0 0 44.875-7 23 23 0 0 0-16-21.875z" opacity=".2"/>
  <path d="M24 1c12.703 0 23 10.297 23 23S36.703 47 24 47 1 36.703 1 24 11.297 1 24 1z" fill="url(#a)"/>
  <g transform="translate(1 1)" opacity=".1">
    <path d="M24 9C15.715 9 9 15.715 9 24s6.715 15 15 15 15-6.715 15-15S32.285 9 24 9m0 6c4.969 0 9 4.03 9 9 0 4.969-4.03 9-9 9-4.969 0-9-4.03-9-9 0-4.969 4.03-9 9-9m0 0"/>
    <use xlink:href="#b"/>
    <use xlink:href="#c"/>
  </g>
  <g>
    <path d="M24 9C15.715 9 9 15.715 9 24s6.715 15 15 15 15-6.715 15-15S32.285 9 24 9m0 6c4.969 0 9 4.03 9 9 0 4.969-4.03 9-9 9-4.969 0-9-4.03-9-9 0-4.969 4.03-9 9-9m0 0" fill="#ea5c53"/>
    <path d="M10.375 17.781C9.508 19.676 9 21.781 9 24c0 2.219.508 4.324 1.375 6.219l5.25-3c-.383-1-.625-2.082-.625-3.219s.242-2.219.625-3.219m-5.25-3M37.625 17.781l-5.25 3c.383 1 .625 2.082.625 3.219s-.242 2.219-.625 3.219l5.25 3C38.492 28.324 39 26.219 39 24c0-2.219-.508-4.324-1.375-6.219m0 0M20.781 32.375l-3 5.25c1.895.867 4 1.375 6.219 1.375 2.219 0 4.324-.508 6.219-1.375l-3-5.25c-1 .383-2.082.625-3.219.625s-2.219-.242-3.219-.625m0 0M24 9c-2.219 0-4.324.508-6.219 1.375l3 5.25c1-.383 2.082-.625 3.219-.625s2.219.242 3.219.625l3-5.25C28.324 9.508 26.219 9 24 9m0 0" fill="#eeece0"/>
    <path d="M24 9C15.715 9 9 15.715 9 24c0 4.398 1.922 8.32 4.938 11.06C11.512 32.396 10 28.884 10 25c0-8.285 6.715-15 15-15 3.887 0 7.398 1.512 10.06 3.938C32.318 10.918 28.396 9 24 9m0 0" id="b" fill-opacity=".149"/>
    <path d="M30.844 18.16a9.001 9.001 0 0 1-12.688 12.688A9.001 9.001 0 0 0 34 25.004a8.994 8.994 0 0 0-3.156-6.844m0 0" id="c" fill-opacity=".149"/>
  </g>
  <g>
    <path d="M40.03 7.531A22.922 22.922 0 0 1 45.999 23c0 12.703-10.297 23-23 23A22.92 22.92 0 0 1 7.53 40.031C11.708 44.322 17.54 47 23.999 47c12.703 0 23-10.298 23-23 0-6.462-2.677-12.291-6.969-16.469z" opacity=".1"/>
  </g>
</svg>
